places/32/folder-root.svg

<svg height="32" width="32" xmlns="http://www.w3.org/2000/svg" xmlns:xlink="http://www.w3.org/1999/xlink">
    <linearGradient id="a" gradientUnits="userSpaceOnUse" x2="0" y1="29" y2="8">
        <stop offset="0" stop-color="#3daee9"/>
        <stop offset="1" stop-color="#6cc1ef"/>
    </linearGradient>
    <path d="m2 3v8h28v-6h-14l-2-2z" fill="#147eb8"/>
    <path d="m13 8-2 2h-10v19h30v-21z" fill="url(#a)"/>
    <g fill-opacity=".235">
        <path d="m13 8-2 2h-10v1h11z" fill="#fff"/>
        <path d="m14 3 1 3h15v-1h-14z" fill="#fff"/>
        <path d="m1 28h30v1h-30z" fill="#000"/>
        <path d="m13 8-2 1h-9v1h9z" fill="#000"/>
    </g>
    <path d="m18 13h-2l-5 10h2zm-2 9h5v1h-5z" fill="#1272a5"/>
</svg>

<svg xmlns="http://www.w3.org/2000/svg" viewBox="0 0 32 32">
  <defs id="defs3051">
    <style type="text/css" id="current-color-scheme">
      .ColorScheme-Text {
        color:#31363b;
      }
      .ColorScheme-Highlight {
        color:#3daee9;
      }
      </style>
  </defs>
 <path 
     style="fill:currentColor;fill-opacity:1;stroke:none" 
     d="M 2 3 L 2 10 L 1 10 L 1 29 L 12 29 L 13 29 L 31 29 L 31 8 L 30 8 L 30 5 L 16 5 L 14 3 L 2 3 z "
     class="ColorScheme-Highlight"
     />
 <path 
     style="fill-opacity:0.33;fill-rule:evenodd"
     d="m 2,3 0,7 9,0 L 13,8 30,8 30,5 16,5 14,3 2,3 Z"
     />
 <path 
     style="fill:#ffffff;fill-opacity:0.2;fill-rule:evenodd"
     d="M 14 3 L 15 6 L 30 6 L 30 5 L 16 5 L 14 3 z M 13 8 L 11 10 L 1 10 L 1 11 L 12 11 L 13 8 z "
     />
 <path 
     style="fill-opacity:0.2;fill-rule:evenodd"
     d="M 13 8 L 11 9 L 2 9 L 2 10 L 11 10 L 13 8 z M 1 28 L 1 29 L 31 29 L 31 28 L 1 28 z "
     class="ColorScheme-Text"
     />
 <path 
     style="fill:currentColor;fill-opacity:0.6;stroke:none" 
     d="M 16 13 L 11 23 L 13 23 L 18 13 L 16 13 z M 16 22 L 16 23 L 21 23 L 21 22 L 16 22 z "
     class="ColorScheme-Text"
     />
</svg>
